!!!COM: Franz Schubert
!!!CNT: Deutsch
!!!TXO: Deutsch
!!!OTL: Scha2fers Klanglied
!!!LYR: Johann Wolfgang von Goethe
!!!OPS: Op. 3
!!!ONM: No. 1
!!!ENC: Ben Fuhrman
!!!YOR: Schubert Lieder - Dietrich Fischer-Dieskau, and Elmar Budde, eds.
!!!YOR: New York: C. F. Peters, Vol. 2
!!!ODT: 1814/
!!NB: Only vocal melody encoded.
!!NB: First instance of melodic material only encoded.
**kern
*clef G2
*k[b-e-a-]
*M6/8
!!created: 08/01/06 9:00
!!proofed and posted: 08/01/06 9:00
!!edit time: 60 minutes
=
4.r
4r
{8g
=1
8.g
16a-
8g
8.g
16a-
8g
=2
4.cc
4g}
{8cc
=3
4bn
8cc
8.dd
16cc
8b-
=4
4cc}
{8cc
8.cc
16dd-
8cc
=5
4cc
8a-
8.a-
16b-
8cc
=6
(4g
16b-
16a-)
4g}
{8cc
=7
8.cc
16b-
8a-
8.g
16f
8d
=8
4c}
8r
4r
8r
!! rest to measure 10
=10
4r
8r
4r
{8b-
=11
8b-
8g
8f
8.e-
16f
8e-
=12
4.cc
4b-}
{8g
=13
8f
8f
8g
8.a-
16b-
8a-
=14
4.g}
4r
{8b-
=15
8b-
8g
8f
8.e-
16f
8e-
=16
4.cc
4.b-}
=17
4r
8r
4r
{8b-
=18
4b-
8g
8.dd
16cc
8an
=19
4g}
8r
4r
8r
=20
4r
8r
4r
{8b-
=21
8.cc
16ee-
8a-
8.cc
16ee-
8a-
=22
(4.dd-
qee-
qdd-)
8cc}
8r
{8a-
=23
8.cc
16ee-
8a-
8.cc
16ee-
8a-
=24
8.dd-
16b-
8g
8a-}
8r
{8a-
=25
8.dd-
16a-
8a-}
{8a-
8dd-
8ff-
=26
qff-
4ee-
8ee-
8ee-
8ee-
8ee-
=27
[4.ee-
4ee-]
8g
=28
4a-}
8r
4r
{8a-
=29
4cc-
8a-
8.cc-
16dd-
8ee-
=30
4.ee-
4a-
8cc-
=31
4cc-
8g-
8.ff-
16dd-
8b-
=32
4cc-}
8r
4r
8r
=33
4r
8r
4r
{8cc-
=34
8.cc-
16dd-
8cc-
8.b-
16cc-
8b-
=35
qb-
8an
8an}
8r
4r
{8an
=36
8.b-
16an
8b-
8.cc-
16b-
8a-
=37
4b-}
8r
4r
8r
=38
4r
8r
4r
{8b-
=39
8.b-
16g
8f
8.e-
16f
8e-
=40
4.cc
4b-}
{8g
=41
4f
8g
8.a-
16b-
8a-
=42
4.g}
4r
{8b-
=43
8.b-
16g
8f
8.e-
16f
8e-
=44
4.cc
4b-}
{8b-
=45
8.dd
16cc
8b-
8an
8cc
8f#
=46
4.g}
4r
8r
=47
4r
8r
4r
{8g
=48
8.g
16a-
8g
8.g
16a-
8g
=49
4.cc
4g}
{8cc
=50
4bn
8cc
8.dd
16cc
8b-
=51
4cc}
{8cc
8.cc
16dd-
8cc
=52
4cc
8a-
8.a-
16b-
8cc
=53
(4g
16b-
16a-)
4g}
{8cc
=54
8.cc
16b-
8a-
8g
8b-
8a-
=55
4g
8g
8.cc
16dd-
8cc
=56
4cc
8a-}
{8.cc
16dd-
8cc
=57
(4cc
8a-)
4f
8a-
=58
8.g
16f
8e-
8d
8f
16r
16e-
=59
4c}
8r
4r
8r
==
*-
